!!!OTL: BAUR BAUR WAS TRAEGST IM SACKE
!!!ARE: Europa, Mitteleuropa, Deutschland
!!!SCT: E0954
!!!YEM: Copyright 1995, estate of Helmut Schaffrath.
**kern
*ICvox
*Ivox
!! Mixed meters:  4/4; 3/4
*M4/4
*k[b-]
*F:
=1
{2cc
2cc
=2
4cc
2cc
4dd
=3
2cc
2f}
=4
{2cc
2cc
=5
4cc
2cc
4dd
=6
2cc
2f}
=7
{2f
2f
=8
4f
2f
4e
=9
2d
2c}
=10
{2f
2f
=11
4f
2f
4e
=12
2d
2c}
=13
*M3/4
{2f
4c
=14
2f
4g
=15
2.a
=16
2.g}
=17
{2f
4c
=18
2f
4g
=19
2a
4b-
=20
2cc}
{4cc
=21
2b-
4a
=22
2b-
4g
=23
2.f
=24
2.f}
==
!!!AGN: Tanz - Lied, Reigen
!!!ONB: ESAC (Essen Associative Code) Database: ERK2
!!!AMT: irregular
!!!AIN: vox
!!!EED: Helmut Schaffrath
!!!EEV: 1.0
*-
